X: 7
T: Fortuna d'un gran tempo
N: Derived from Jap3007-Fortuna_dun_gran_tempo.krn
C: Jean Japart
%%abc-version 2.0
%%abcx-abcm2ps-target-version 5.9.1 (29 Sep 2008)
%%abc-creator hum2abc beta
%%abcx-conversion-date 2019/02/16 20:40:05
%%abc-edited-by Jesse Rodin
%%abc-edited-by Chris Gage 09-11-2013
%%abcx-initial-encoding-date 2013/10/23/
%%humdrum-veritas 1536039121
%%humdrum-veritas-data 1512250728
%%linebreak <none>
%%barnumbers 0
L: 1/4
M: 2/1
Q: 1/2=120
%%staves [1 2 3 4]
V: 1 clef=treble
V: 2 clef=treble-8
V: 3 clef=treble-8
V: 4 clef=bass
K: F
[V:1] z8 | 
[V:2] z4d4 | 
[V:3] z8 | 
[V:4] z8 | 
[V:1] z8 | 
[V:2] d6c2 | 
[V:3] z8 | 
[V:4] z4D,4 | 
[V:1] z8 | 
[V:2] B2AGB2A2- | 
[V:3] z8 | 
[V:4] D,6C,2 | 
[V:1] z8 | 
[V:2] AGG4^F2 | 
[V:3] z8 | 
[V:4] B,,4A,,4 | 
[V:1] z4d4 | 
[V:2] G6FE | 
[V:3] z8 | 
[V:4] G,,6A,,2 | 
[V:1] d6c2 | 
[V:2] D2E2F2GA | 
[V:3] z4d4 | 
[V:4] B,,2C,2D,2E,F, | 
[V:1] B2AGB2A2- | 
[V:2] B4z2A2 | 
[V:3] d6c2 | 
[V:4] G,4D,2F,2 | 
[V:1] AGG4^F2 | 
[V:2] B2c2d4 | 
[V:3] B4A4 | 
[V:4] G,4D,4 | 
[V:1] G2B4AG | 
[V:2] _e4d4- | 
[V:3] G6A2 | 
[V:4] z2G,,4D,2- | 
[V:1] F4G2A2- | 
[V:2] d2f2e2f2 | 
[V:3] B2A2B2c2 | 
[V:4] D,4G,2F,2- | 
[V:1] AG^FEF4 | 
[V:2] c2d3cBA | 
[V:3] A8 | 
[V:4] F,E,D,C,D,4 | 
[V:1] G8 | 
[V:2] B4z2B2 | 
[V:3] G4z4 | 
[V:4] z4G,4 | 
[V:1] A6A2 | 
[V:2] c2d3ef2- | 
[V:3] z8 | 
[V:4] F,4D,4- | 
[V:1] A6B2 | 
[V:2] f2edf2e2- | 
[V:3] z8 | 
[V:4] D,2C,2D,2C,B,, | 
[V:1] c2B2A2G2 | 
[V:2] e2dcd2cB | 
[V:3] A6A2 | 
[V:4] A,,4D,4- | 
[V:1] A8 | 
[V:2] A2c4d2 | 
[V:3] A6B2 | 
[V:4] D,2E,2F,4 | 
[V:1] G4z4 | 
[V:2] e2f2g4- | 
[V:3] c2B2A2G2 | 
[V:4] C,4E,4 | 
[V:1] z4A4 | 
[V:2] g2^fe^f4 | 
[V:3] A8 | 
[V:4] D,8 | 
[V:1] B6A2 | 
[V:2] g4d4 | 
[V:3] G4z4 | 
[V:4] G,,4z2G,2- | 
[V:1] G4F4 | 
[V:2] d6c2 | 
[V:3] z8 | 
[V:4] G,F,G,2B,2A,2- | 
[V:1] B4c4 | 
[V:2] B4A4 | 
[V:3] z8 | 
[V:4] A,G,G,4^F,2 | 
[V:1] B2d3cBA | 
[V:2] G6A2 | 
[V:3] z8 | 
[V:4] G,6D,2 | 
[V:1] G2F2B2A2- | 
[V:2] B2A2B2c2 | 
[V:3] z8 | 
[V:4] G,2D,2G,2F,2- | 
[V:1] AGG4^F2 | 
[V:2] A8 | 
[V:3] z8 | 
[V:4] F,2E,2D,4 | 
[V:1] G4z4 | 
[V:2] G4D3E | 
[V:3] z4d4 | 
[V:4] G,,4z4 | 
[V:1] z8 | 
[V:2] F2G3ABc | 
[V:3] d6c2 | 
[V:4] z8 | 
[V:1] z8 | 
[V:2] d2g4^f2 | 
[V:3] B4A4 | 
[V:4] z8 | 
[V:1] z8 | 
[V:2] g2d3cBA | 
[V:3] G6A2 | 
[V:4] z8 | 
[V:1] d6cB | 
[V:2] G2F2G2A2- | 
[V:3] B2A2B2c2 | 
[V:4] z8 | 
[V:1] c4A4 | 
[V:2] AGG4^F2 | 
[V:3] A8 | 
[V:4] z8 | 
[V:1] B4c2A2- | 
[V:2] G4F4 | 
[V:3] G4z4 | 
[V:4] z4A,4 | 
[V:1] AGFEF2E2- | 
[V:2] D4z4 | 
[V:3] z8 | 
[V:4] A,6G,2 | 
[V:1] EDD4^C2 | 
[V:2] d4e4 | 
[V:3] z8 | 
[V:4] F,4E,4 | 
[V:1] D8 | 
[V:2] f6ed | 
[V:3] A6A2 | 
[V:4] D,6E,2 | 
[V:1] z4A4- | 
[V:2] c4d4 | 
[V:3] A6B2 | 
[V:4] F,2E,2F,2G,2 | 
[V:1] A2G2G4- | 
[V:2] e4c4 | 
[V:3] c2B2A2G2 | 
[V:4] E,8 | 
[V:1] G4^F4 | 
[V:2] d4c4 | 
[V:3] A8 | 
[V:4] D,4z4 | 
[V:1] G4c4 | 
[V:2] B2c4BA | 
[V:3] G4z4 | 
[V:4] _E,6E,2 | 
[V:1] B2c4BA | 
[V:2] G4z4 | 
[V:3] z8 | 
[V:4] _E,6F,2 | 
[V:1] G4z4 | 
[V:2] d4d4- | 
[V:3] z8 | 
[V:4] G,2F,2_E,2D,2 | 
[V:1] z8 | 
[V:2] d2cBcBAG | 
[V:3] z8 | 
[V:4] _E,8 | 
[V:1] d4d4- | 
[V:2] F2G4^F2 | 
[V:3] z8 | 
[V:4] D,8 | 
[V:1] d2cBcBAG | 
[V:2] G2d2_edcB | 
[V:3] z8 | 
[V:4] G,,4z2C,2 | 
[V:1] F2G4^F2 | 
[V:2] A2G2A4 | 
[V:3] z4d4 | 
[V:4] D,2E,2D,4 | 
[V:1] G4z4 | 
[V:2] G4F2E2 | 
[V:3] d6c2 | 
[V:4] z2G,,2B,,2C,2 | 
[V:1] G4A4 | 
[V:2] D2G4^F2 | 
[V:3] B4A4 | 
[V:4] G,,4D,4 | 
[V:1] B6AG | 
[V:2] G3AB2c2 | 
[V:3] G6A2 | 
[V:4] G,,4z4 | 
[V:1] F4G2AB | 
[V:2] d2c2d2e2- | 
[V:3] B2A2B2c2 | 
[V:4] z8 | 
[V:1] cBAGA2Bc | 
[V:2] ecf3edc | 
[V:3] A8 | 
[V:4] z8 | 
[V:1] d2c4=B2 | 
[V:2] B2c2d4 | 
[V:3] G4z4 | 
[V:4] z4G,4 | 
[V:1] c3BAGB2- | 
[V:2] c6d2- | 
[V:3] z8 | 
[V:4] A,2F,2A,2G,2- | 
[V:1] BAA4G2 | 
[V:2] d2c2B4 | 
[V:3] z8 | 
[V:4] G,D,F,2G,4 | 
[V:1] F2A3GF2 | 
[V:2] A4z4 | 
[V:3] A6A2 | 
[V:4] D,2F,3E,D,2- | 
[V:1] E4D4 | 
[V:2] z8 | 
[V:3] A6B2 | 
[V:4] D,2^C,2D,3=C, | 
[V:1] z4A2B2 | 
[V:2] e6e2 | 
[V:3] c2B2A2G2 | 
[V:4] A,,4z4 | 
[V:1] c4c4 | 
[V:2] e6f2 | 
[V:3] A8 | 
[V:4] z2A,,2C,2D,2 | 
[V:1] B2A2B2d2- | 
[V:2] g2f2e2d2 | 
[V:3] G4z4 | 
[V:4] E,2F,2G,2B,2- | 
[V:1] d2^c=Bc4 | 
[V:2] e8 | 
[V:3] z8 | 
[V:4] B,2A,G,A,4 | 
[V:1] d6cB | 
[V:2] d4d4- | 
[V:3] z8 | 
[V:4] D,4z4 | 
[V:1] A4F2G2 | 
[V:2] d2c2B4 | 
[V:3] z8 | 
[V:4] D,4D,4- | 
[V:1] A4D4 | 
[V:2] A4G4 | 
[V:3] z8 | 
[V:4] D,2C,2B,,4 | 
[V:1] z8 | 
[V:2] F4G2B2- | 
[V:3] z8 | 
[V:4] A,,4G,,4- | 
[V:1] z8 | 
[V:2] B2A2G2A2- | 
[V:3] z4d4 | 
[V:4] G,,2A,,2B,,2A,,2 | 
[V:1] z8 | 
[V:2] AGG4^F2 | 
[V:3] d6c2 | 
[V:4] B,,2C,2A,,4 | 
[V:1] d6c2 | 
[V:2] G4z2A2 | 
[V:3] B4A4 | 
[V:4] G,,2G,,3^F,,F,,2 | 
[V:1] B4A4 | 
[V:2] B4c4 | 
[V:3] G6A2 | 
[V:4] G,,2G,4^F,2 | 
[V:1] G8 | 
[V:2] B2c2d2g2- | 
[V:3] B2A2B2c2 | 
[V:4] G,4z2C,2 | 
[V:1] z4A4 | 
[V:2] g2^fe^f4 | 
[V:3] A8 | 
[V:4] D,2C,B,,A,,2D,2 | 
[V:1] B3AB2c2 | 
[V:2] g4e4 | 
[V:3] G4z4 | 
[V:4] G,,2G,3F,A,2- | 
[V:1] A8 | 
[V:2] c2f3edc | 
[V:3] z8 | 
[V:4] A,G,F,E,F,4 | 
[V:1] G4z4 | 
[V:2] e2d4^c2 | 
[V:3] z8 | 
[V:4] G,4E,4 | 
[V:1] F3GABc2- | 
[V:2] d8 | 
[V:3] A6A2 | 
[V:4] D,6E,2 | 
[V:1] cBAGA3G | 
[V:2] c4A4- | 
[V:3] A6B2 | 
[V:4] F,6E,2 | 
[V:1] FED4G2- | 
[V:2] A2B2c4 | 
[V:3] c2B2A2G2 | 
[V:4] C,2D,2E,4 | 
[V:1] G2^FEF4 | 
[V:2] d8- | 
[V:3] A8 | 
[V:4] D,8 | 
[V:1] G8 |]  
[V:2] d8 |]  
[V:3] G8 |]  
[V:4] G,,8 |]  



